X:143
T:The Cottage in the Glen
T:The Glen Cottage
T:The Green Cottage Polka
R:polka
D:Highland Sun, Celtic Crossover (in `Donald MacGilavry')
D:Cherish the Ladies
M:2/4
L:1/8
K:Edor
B>A|:GE ED|B,E E>F|GF ED|GA B>A|GE ED|B,E E2|B>A GF|1 E2 B>A:|2 E2 E2||
|:Be e>f|eB BA|Be df|e2 ef|g2 f2|ed BA|BE E/F/G/A/|B2 B>A:|
